icons/fill-new-nature-weather-sun-sunny.svg

<svg xmlns="http://www.w3.org/2000/svg" width="32px" height="32px" viewBox="0 0 32 32" version="1.1">
    <title>fill-new-nature-weather-sun-sunny</title>
    <g id="fill-new-nature-weather-sun-sunny" stroke-width="1" fill-rule="evenodd">
        <path d="M16,26 C16.5522847,26 17,26.4477153 17,27 L17,29 C17,29.5522847 16.5522847,30 16,30 C15.4477153,30 15,29.5522847 15,29 L15,27 C15,26.4477153 15.4477153,26 16,26 Z M24.4852814,23.0710678 L25.8994949,24.4852814 C26.2900192,24.8758057 26.2900192,25.5089706 25.8994949,25.8994949 C25.5089706,26.2900192 24.8758057,26.2900192 24.4852814,25.8994949 L23.0710678,24.4852814 C22.6805435,24.0947571 22.6805435,23.4615921 23.0710678,23.0710678 C23.4615921,22.6805435 24.0947571,22.6805435 24.4852814,23.0710678 Z M8.92893219,23.0710678 C9.31945648,23.4615921 9.31945648,24.0947571 8.92893219,24.4852814 L7.51471863,25.8994949 C7.12419433,26.2900192 6.49102936,26.2900192 6.10050506,25.8994949 C5.70998077,25.5089706 5.70998077,24.8758057 6.10050506,24.4852814 L7.51471863,23.0710678 C7.90524292,22.6805435 8.5384079,22.6805435 8.92893219,23.0710678 Z M16,8 C20.418278,8 24,11.581722 24,16 C24,20.418278 20.418278,24 16,24 C11.581722,24 8,20.418278 8,16 C8,11.581722 11.581722,8 16,8 Z M29,15 C29.5522847,15 30,15.4477153 30,16 C30,16.5522847 29.5522847,17 29,17 L27,17 C26.4477153,17 26,16.5522847 26,16 C26,15.4477153 26.4477153,15 27,15 L29,15 Z M5,15 C5.55228475,15 6,15.4477153 6,16 C6,16.5522847 5.55228475,17 5,17 L3,17 C2.44771525,17 2,16.5522847 2,16 C2,15.4477153 2.44771525,15 3,15 L5,15 Z M25.8994949,6.10050506 C26.2900192,6.49102936 26.2900192,7.12419433 25.8994949,7.51471863 L24.4852814,8.92893219 C24.0947571,9.31945648 23.4615921,9.31945648 23.0710678,8.92893219 C22.6805435,8.5384079 22.6805435,7.90524292 23.0710678,7.51471863 L24.4852814,6.10050506 C24.8758057,5.70998077 25.5089706,5.70998077 25.8994949,6.10050506 Z M7.51471863,6.10050506 L8.92893219,7.51471863 C9.31945648,7.90524292 9.31945648,8.5384079 8.92893219,8.92893219 C8.5384079,9.31945648 7.90524292,9.31945648 7.51471863,8.92893219 L6.10050506,7.51471863 C5.70998077,7.12419433 5.70998077,6.49102936 6.10050506,6.10050506 C6.49102936,5.70998077 7.12419433,5.70998077 7.51471863,6.10050506 Z M16,2 C16.5522847,2 17,2.44771525 17,3 L17,5 C17,5.55228475 16.5522847,6 16,6 C15.4477153,6 15,5.55228475 15,5 L15,3 C15,2.44771525 15.4477153,2 16,2 Z" id="&#24418;&#29366;" />
    </g>
</svg>

<svg xmlns="http://www.w3.org/2000/svg" viewBox="0 0 32 32"><path fill="currentColor" d="M16 26a1 1 0 0 1 1 1v2a1 1 0 0 1-2 0v-2a1 1 0 0 1 1-1m8.485-2.929 1.414 1.414a1 1 0 1 1-1.414 1.414l-1.414-1.414a1 1 0 0 1 1.414-1.414m-15.556 0a1 1 0 0 1 0 1.414L7.515 25.9A1 1 0 0 1 6.1 24.485l1.414-1.414a1 1 0 0 1 1.414 0M16 8a8 8 0 1 1 0 16 8 8 0 0 1 0-16m13 7a1 1 0 0 1 0 2h-2a1 1 0 0 1 0-2zM5 15a1 1 0 0 1 0 2H3a1 1 0 0 1 0-2zm20.9-8.9a1 1 0 0 1 0 1.415l-1.415 1.414a1 1 0 0 1-1.414-1.414L24.485 6.1a1 1 0 0 1 1.414 0m-18.385 0 1.414 1.415a1 1 0 0 1-1.414 1.414L6.1 7.515A1 1 0 0 1 7.515 6.1M16 2a1 1 0 0 1 1 1v2a1 1 0 0 1-2 0V3a1 1 0 0 1 1-1"/></svg>
